src/assets/noavatar.svg

<svg xmlns="http://www.w3.org/2000/svg" viewBox="0 0 128 128" clip-path="url(#a)" width="128" height="128"><defs><clipPath id="a" clipPathUnits="objectBoundingBox"><path d="M0 0h128v128H0z"/></clipPath></defs><path fill="#16181B" d="M0 0h128v128H0z"/><path d="M76 103l26-15L39-24z" fill="#C0C1C1" fill-opacity=".47"/><path d="M27 91l25 12 12-85z" fill="#EDEDEC" fill-opacity=".44"/><path d="M73 29l-10-7 5 22z" fill="#FDFDFD" fill-opacity=".71"/><path d="M74 46h6l4 44z" fill="#F6F6F6" fill-opacity=".8"/><path d="M47 54l34-6-33-3z" fill="#EEE" fill-opacity=".68"/><path d="M33 75l11 19-2-38z" fill="#141619" fill-opacity=".73"/><path d="M82 74L54 48l-7 33z" fill="#141618" fill-opacity=".93"/><path d="M40 80l11-37-3 41z" fill="#FEFDFD" fill-opacity=".61"/><path d="M78 27l9 61 82-135z" fill="#1A1C20"/><path d="M-132 18l189 9 52-34z" fill="#191C20" fill-opacity=".98"/><path d="M80 80l-29 3 22-35z" fill="#15171A"/><path d="M53 105l-13-9 13-5z" fill="#D4D3D2" fill-opacity=".63"/><path d="M97 82l2 8-32 18z" fill="#FEFEFD" fill-opacity=".44"/><path d="M56 27l9-3-9 19z" fill="#FEFEFE" fill-opacity=".78"/><path d="M24 88l24 13-17-17z" fill="#FFF" fill-opacity=".54"/><path d="M82 62l-8 31 13-14z" fill="#F3F2F2" fill-opacity=".49"/><path d="M41 78l12 17V83z" fill="#C9C9C9" fill-opacity=".74"/><path d="M69 40l-5 6-8-8z" fill="#FFF" fill-opacity=".73"/><path d="M46-11l-1 59 12-5z" fill="#1D2024" fill-opacity=".96"/><path d="M86 92l5-18-12 15z" fill="#141516" fill-opacity=".91"/><path d="M51 60l-2-18-7 38z" fill="#FDFDFD" fill-opacity=".56"/><path d="M74 50l-13 4 8-26z" fill="#FFF" fill-opacity=".35"/><path d="M87 97H72l31-10z" fill="#FDFCFB" fill-opacity=".36"/><path d="M48 95l-2-11-12 3z" fill="#000102" fill-opacity=".67"/><path d="M107 17L78 41 54 53z" fill="#282B2F" fill-opacity=".76"/><path d="M49 7L17 95l27-23z" fill="#1A1D21" fill-opacity=".66"/><path d="M52 108l28-30-14-26z" fill="#16181B" fill-opacity=".97"/><path d="M46 47l22 7-8-8z" fill="#FFF" fill-opacity=".49"/><path d="M66 32l-3 9-1-14z" fill="#000307" fill-opacity=".55"/><path d="M65 46v2L23 31z" fill="#25272A"/><path d="M187-134L113 99 86 74z" fill="#181A1E"/><path d="M95 92l-7-11h7z" fill="#FCFBFB" fill-opacity=".46"/></svg>

<svg xmlns="http://www.w3.org/2000/svg" viewBox="0 0 128 128" clip-path="url(#clip)" width="128" height="128"><defs><clipPath id="clip" clipPathUnits="objectBoundingBox"><rect x="0" y="0" width="128" height="128"/></clipPath></defs><rect x="0" y="0" width="128" height="128" fill="rgb(22, 24, 27)"/><path d="M76,103L102,88L39,-24Z" fill="rgb(192, 193, 193)" fill-opacity="0.47"/><path d="M27,91L52,103L64,18Z" fill="rgb(237, 237, 236)" fill-opacity="0.44"/><path d="M73,29L63,22L68,44Z" fill="rgb(253, 253, 253)" fill-opacity="0.71"/><path d="M74,46L80,46L84,90Z" fill="rgb(246, 246, 246)" fill-opacity="0.80"/><path d="M47,54L81,48L48,45Z" fill="rgb(238, 238, 238)" fill-opacity="0.68"/><path d="M33,75L44,94L42,56Z" fill="rgb(20, 22, 25)" fill-opacity="0.73"/><path d="M82,74L54,48L47,81Z" fill="rgb(20, 22, 24)" fill-opacity="0.93"/><path d="M40,80L51,43L48,84Z" fill="rgb(254, 253, 253)" fill-opacity="0.61"/><path d="M78,27L87,88L169,-47Z" fill="rgb(26, 28, 32)" fill-opacity="1.00"/><path d="M-132,18L57,27L109,-7Z" fill="rgb(25, 28, 32)" fill-opacity="0.98"/><path d="M80,80L51,83L73,48Z" fill="rgb(21, 23, 26)" fill-opacity="1.00"/><path d="M53,105L40,96L53,91Z" fill="rgb(212, 211, 210)" fill-opacity="0.63"/><path d="M97,82L99,90L67,108Z" fill="rgb(254, 254, 253)" fill-opacity="0.44"/><path d="M56,27L65,24L56,43Z" fill="rgb(254, 254, 254)" fill-opacity="0.78"/><path d="M24,88L48,101L31,84Z" fill="rgb(255, 255, 255)" fill-opacity="0.54"/><path d="M82,62L74,93L87,79Z" fill="rgb(243, 242, 242)" fill-opacity="0.49"/><path d="M41,78L53,95L53,83Z" fill="rgb(201, 201, 201)" fill-opacity="0.74"/><path d="M69,40L64,46L56,38Z" fill="rgb(255, 255, 255)" fill-opacity="0.73"/><path d="M46,-11L45,48L57,43Z" fill="rgb(29, 32, 36)" fill-opacity="0.96"/><path d="M86,92L91,74L79,89Z" fill="rgb(20, 21, 22)" fill-opacity="0.91"/><path d="M51,60L49,42L42,80Z" fill="rgb(253, 253, 253)" fill-opacity="0.56"/><path d="M74,50L61,54L69,28Z" fill="rgb(255, 255, 255)" fill-opacity="0.35"/><path d="M87,97L72,97L103,87Z" fill="rgb(253, 252, 251)" fill-opacity="0.36"/><path d="M48,95L46,84L34,87Z" fill="rgb(0, 1, 2)" fill-opacity="0.67"/><path d="M107,17L78,41L54,53Z" fill="rgb(40, 43, 47)" fill-opacity="0.76"/><path d="M49,7L17,95L44,72Z" fill="rgb(26, 29, 33)" fill-opacity="0.66"/><path d="M52,108L80,78L66,52Z" fill="rgb(22, 24, 27)" fill-opacity="0.97"/><path d="M46,47L68,54L60,46Z" fill="rgb(255, 255, 255)" fill-opacity="0.49"/><path d="M66,32L63,41L62,27Z" fill="rgb(0, 3, 7)" fill-opacity="0.55"/><path d="M65,46L65,48L23,31Z" fill="rgb(37, 39, 42)" fill-opacity="1.00"/><path d="M187,-134L113,99L86,74Z" fill="rgb(24, 26, 30)" fill-opacity="1.00"/><path d="M95,92L88,81L95,81Z" fill="rgb(252, 251, 251)" fill-opacity="0.46"/></svg>
